;FLAVOR:Marlin
;TIME:30325
;Filament used: 22.8952m
;Layer height: 0.16
;MINX:45.791
;MINY:42.422
;MINZ:0.24
;MAXX:176.056
;MAXY:193.751
;MAXZ:25.95
;Generated with Cura_SteamEngine 5.2.2
M140 S50
M105
M190 S50
M104 S200
M105
M109 S200
M82 ;absolute extrusion mode
; Ender 3 Custom Start G-code
G92 E0 ; Reset Extruder
G28 ; Home all axes
G29 ; Automatic Bed Leveling (BLTouch)
G1 Z2.0 F3000 ; Move Z Axis up little to prevent scratching of Heat Bed
G1 X0.1 Y20 Z0.3 F5000.0 ; Move to start position
G1 X0.1 Y200.0 Z0.3 F1500.0 E15 ; Draw the first line
G1 X0.4 Y200.0 Z0.3 F5000.0 ; Move to side a little
G1 X0.4 Y20 Z0.3 F1500.0 E30 ; Draw the second line
G92 E0 ; Reset Extruder
G1 Z2.0 F3000 ; Move Z Axis up little to prevent scratching of Heat Bed
G1 X5 Y20 Z0.3 F5000.0 ; Move over to prevent blob squish
G92 E0
G92 E0
G1 F2700 E-5
;LAYER_COUNT:130
;LAYER:-6
M107
G0 F9000 X49.903 Y49.161 Z0.24
;TYPE:SUPPORT-INTERFACE
G1 F2700 E0
G1 F1125 X49.265 Y50.053 E0.08754
G1 X48.686 Y51.017 E0.17731
G1 X48.234 Y51.897 E0.25628
G1 X47.816 Y52.882 E0.34169
G1 X47.476 Y53.886 E0.4263
G1 X47.192 Y54.99 E0.5173
G1 X47.029 Y55.872 E0.5889
G1 X46.904 Y56.946 E0.67521
G1 X46.857 Y58.096 E0.76708
G1 X46.857 Y178.136 E10.34919
G1 X46.864 Y178.533 E10.38089
G1 X46.945 Y179.692 E10.47363
G1 X47.089 Y180.664 E10.55207
G1 X47.334 Y181.784 E10.64358
G1 X47.672 Y182.888 E10.73575
G1 X48.049 Y183.859 E10.81889
G1 X48.442 Y184.696 E10.8927
G1 X48.995 Y185.694 E10.98378
G1 X49.586 Y186.586 E11.0692
G1 X50.245 Y187.441 E11.15537
G1 X51.01 Y188.283 E11.24618
G1 X51.661 Y188.91 E11.31832
G1 X52.533 Y189.643 E11.40926
G1 X53.415 Y190.272 E11.49573
G1 X54.387 Y190.857 E11.58629
G1 X55.254 Y191.304 E11.66415
G1 X56.162 Y191.69 E11.74291
G1 X57.247 Y192.065 E11.83455
G1 X58.359 Y192.351 E11.9262
G1 X59.324 Y192.53 E12.00455
G1 X60.316 Y192.639 E12.08421
G1 X61.446 Y192.686 E12.17449
G1 X161.506 Y192.686 E20.16171
G1 X161.902 Y192.679 E20.19332
G1 X163.062 Y192.598 E20.28615
G1 X164.031 Y192.454 E20.36435
G1 X164.555 Y192.34 E20.40715
G1 X165.076 Y192.226 E20.44972
G1 X166.171 Y191.905 E20.54081
G1 X167.244 Y191.487 E20.63273
G1 X168.065 Y191.101 E20.70515
G1 X169.063 Y190.548 E20.79623
G1 X169.955 Y189.958 E20.8816
G1 X170.797 Y189.308 E20.96651
G1 X171.652 Y188.531 E21.05873
G1 X172.279 Y187.88 E21.13088
G1 X173.01 Y187.01 E21.22158
G1 X173.639 Y186.132 E21.3078
G1 X174.148 Y185.296 E21.38593
G1 X174.671 Y184.292 E21.47629
G1 X175.096 Y183.296 E21.56273
G1 X175.434 Y182.299 E21.64677
G1 X175.72 Y181.184 E21.73865
G1 X175.898 Y180.218 E21.81706
G1 X176.019 Y179.08 E21.90841
G1 X176.056 Y178.079 E21.98837
G1 X176.055 Y58.035 E31.5708
G1 X176.048 Y57.639 E31.60242
G1 X175.967 Y56.479 E31.69524
G1 X175.823 Y55.51 E31.77344
G1 X175.577 Y54.384 E31.86544
G1 X175.272 Y53.366 E31.95027
G1 X174.856 Y52.299 E32.04169
G1 X174.47 Y51.478 E32.11411
G1 X173.955 Y50.548 E32.19897
G1 X173.334 Y49.602 E32.2893
G1 X172.664 Y48.731 E32.37701
G1 X171.9 Y47.891 E32.46765
G1 X171.251 Y47.264 E32.53969
G1 X170.382 Y46.534 E32.63028
G1 X169.504 Y45.905 E32.7165
G1 X168.526 Y45.317 E32.80759
G1 X167.646 Y44.865 E32.88656
G1 X166.661 Y44.447 E32.97197
G1 X165.657 Y44.107 E33.05659
G1 X164.553 Y43.823 E33.14758
G1 X163.671 Y43.66 E33.21918
G1 X162.597 Y43.535 E33.30549
G1 X161.465 Y43.488 E33.39593
G1 X61.404 Y43.488 E41.38323
G1 X61.01 Y43.495 E41.41468
G1 X59.853 Y43.576 E41.50727
G1 X58.878 Y43.72 E41.58594
G1 X57.753 Y43.966 E41.67786
G1 X56.745 Y44.269 E41.76188
G1 X55.668 Y44.687 E41.8541
G1 X54.847 Y45.073 E41.92652
G1 X53.917 Y45.588 E42.01138
G1 X52.969 Y46.211 E42.10193
G1 X52.1 Y46.879 E42.18942
G1 X51.26 Y47.643 E42.28006
G1 X50.633 Y48.292 E42.3521
G1 X49.903 Y49.161 E42.44269
G0 F9000 X49.879 Y49.879
G1 F1125 X175.655 Y175.655 E56.64137
G0 F9000 X175.655 Y173.393
G1 F1125 X50.88 Y48.617 E70.72711
G0 F9000 X52.019 Y47.493
G1 F1125 X175.655 Y171.13 E84.68427
G0 F9000 X175.655 Y168.867
G1 F1125 X53.276 Y46.488 E98.49947
G0 F9000 X54.675 Y45.624
G1 F1125 X175.655 Y166.604 E112.15673
G0 F9000 X175.655 Y164.342
G1 F1125 X56.217 Y44.903 E125.63998
G0 F9000 X57.916 Y44.34
G1 F1125 X175.655 Y162.079 E138.93138
G0 F9000 X175.655 Y159.816
G1 F1125 X59.824 Y43.984 E152.00744
G0 F9000 X61.989 Y43.887
G1 F1125 X175.655 Y157.553 E164.83904
G0 F9000 X175.655 Y155.291
G1 F1125 X64.252 Y43.887 E177.41523
G0 F9000 X66.515 Y43.887
G1 F1125 X175.655 Y153.028 E189.73595
G0 F9000 X175.655 Y150.765
G1 F1125 X68.778 Y43.887 E201.80121
G0 F9000 X71.04 Y43.887
G1 F1125 X175.655 Y148.503 E213.61111
G0 F9000 X175.655 Y146.24
G1 F1125 X73.303 Y43.887 E225.16555
G0 F9000 X75.566 Y43.887
G1 F1125 X175.655 Y143.977 E236.46451
G0 F9000 X175.655 Y141.714
G1 F1125 X77.829 Y43.887 E247.50801
G0 F9000 X80.091 Y43.887
G1 F1125 X175.655 Y139.452 E258.29616
G0 F9000 X175.655 Y137.189
G1 F1125 X82.354 Y43.887 E268.82884
G0 F9000 X84.617 Y43.887
G1 F1125 X175.655 Y134.926 E279.10605
G0 F9000 X175.655 Y132.663
G1 F1125 X86.88 Y43.887 E289.1278
G0 F9000 X89.142 Y43.887
G1 F1125 X175.655 Y130.401 E298.89419
G0 F9000 X175.655 Y128.138
G1 F1125 X91.405 Y43.887 E308.40511
G0 F9000 X93.668 Y43.887
G1 F1125 X175.655 Y125.875 E317.66057
G0 F9000 X175.655 Y123.612
G1 F1125 X95.931 Y43.887 E326.66056
G0 F9000 X98.193 Y43.887
G1 F1125 X175.655 Y121.35 E335.4052
G0 F9000 X175.655 Y119.087
G1 F1125 X100.456 Y43.887 E343.89437
G0 F9000 X102.719 Y43.887
G1 F1125 X175.655 Y116.824 E352.12807
G0 F9000 X175.655 Y114.561
G1 F1125 X104.982 Y43.887 E360.10631
G0 F9000 X107.244 Y43.887
G1 F1125 X175.655 Y112.299 E367.82919
G0 F9000 X175.655 Y110.036
G1 F1125 X109.507 Y43.887 E375.2966
G0 F9000 X111.77 Y43.887
G1 F1125 X175.655 Y107.773 E382.50855
G0 F9000 X175.655 Y105.51
G1 F1125 X114.032 Y43.887 E389.46509
G0 F9000 X116.295 Y43.887
G1 F1125 X175.655 Y103.248 E396.16621
G0 F9000 X175.655 Y100.985
G1 F1125 X118.558 Y43.887 E402.61187
G0 F9000 X120.821 Y43.887
G1 F1125 X175.655 Y98.722 E408.80206
G0 F9000 X175.655 Y96.459
G1 F1125 X123.083 Y43.887 E414.73684
G0 F9000 X125.346 Y43.887
G1 F1125 X175.655 Y94.197 E420.41622
G0 F9000 X175.655 Y91.934
G1 F1125 X127.609 Y43.887 E425.84012
G0 F9000 X129.872 Y43.887
G1 F1125 X175.655 Y89.671 E431.00856
G0 F9000 X175.655 Y87.409
G1 F1125 X132.134 Y43.887 E435.92164
G0 F9000 X134.397 Y43.887
G1 F1125 X175.655 Y85.146 E440.57926
G0 F9000 X175.655 Y82.883
G1 F1125 X136.66 Y43.887 E444.98141
G0 F9000 X138.923 Y43.887
G1 F1125 X175.655 Y80.62 E449.12809
G0 F9000 X175.655 Y78.358
G1 F1125 X141.185 Y43.887 E453.01942
G0 F9000 X143.448 Y43.887
G1 F1125 X175.655 Y76.095 E456.65528
G0 F9000 X175.655 Y73.832
G1 F1125 X145.711 Y43.887 E460.03567
G0 F9000 X147.974 Y43.887
G1 F1125 X175.655 Y71.569 E463.1606
G0 F9000 X175.655 Y69.307
G1 F1125 X150.236 Y43.887 E466.03017
G0 F9000 X152.499 Y43.887
G1 F1125 X175.655 Y67.044 E468.64428
G0 F9000 X175.655 Y64.781
G1 F1125 X154.762 Y43.887 E471.00291
G0 F9000 X157.025 Y43.887
G1 F1125 X175.655 Y62.518 E473.10609
G0 F9000 X175.655 Y60.256
G1 F1125 X159.287 Y43.887 E474.9539
G0 F9000 X161.554 Y43.892
G1 F1125 X175.653 Y57.99 E476.54546
G0 F9000 X175.406 Y55.481
G1 F1125 X164.065 Y44.14 E477.82573
G0 F9000 X167.37 Y45.182
G1 F1125 X174.347 Y52.159 E478.61336
G1 F2700 E473.61336
G0 F9000 X175.674 Y51.535
G0 X174.775 Y49.847
G0 X173.555 Y48.143
G0 X172.659 Y47.142
G0 X171.104 Y45.749
G0 X169.999 Y44.961
G0 X168.205 Y43.955
G0 X166.941 Y43.418
G0 X164.944 Y42.819
G0 X163.628 Y42.578
G0 X161.443 Y42.423
G0 X60.766 Y42.441
G0 X58.698 Y42.67
G0 X57.383 Y42.966
G0 X55.417 Y43.637
G0 X54.199 Y44.209
G0 X52.433 Y45.288
G0 X51.353 Y46.119
G0 X49.848 Y47.573
G0 X48.99 Y48.606
G0 X47.843 Y50.344
G0 X49.006 Y51.268
G1 F2700 E478.61336
G1 F1125 X175.655 Y177.918 E492.91065
G0 F9000 X175.515 Y180.04
G1 F1125 X48.281 Y52.806 E507.27392
G0 F9000 X47.726 Y54.514
G1 F1125 X175.12 Y181.908 E521.65526
G0 F9000 X174.536 Y183.587
G1 F1125 X47.367 Y56.418 E536.01119
G0 F9000 X47.256 Y58.57
G1 F1125 X173.794 Y185.107 E550.29584
G0 F9000 X172.9 Y186.476
G1 F1125 X47.256 Y60.833 E564.47956
G0 F9000 X47.256 Y63.095
G1 F1125 X171.878 Y187.717 E578.54797
G0 F9000 X170.727 Y188.829
G1 F1125 X47.256 Y65.358 E592.48645
G0 F9000 X47.256 Y67.621
G1 F1125 X169.447 Y189.812 E606.28042
G0 F9000 X168.033 Y190.66
G1 F1125 X47.256 Y69.884 E619.91472
G0 F9000 X47.256 Y72.146
G1 F1125 X166.468 Y191.358 E633.3724
G0 F9000 X164.736 Y191.889
G1 F1125 X47.256 Y74.409 E646.63456
G0 F9000 X47.256 Y76.672
G1 F1125 X162.798 Y192.214 E659.67793
G0 F9000 X160.607 Y192.285
G1 F1125 X47.256 Y78.935 E672.47392
G0 F9000 X47.256 Y81.197
G1 F1125 X158.344 Y192.285 E685.01449
G0 F9000 X156.081 Y192.285
G1 F1125 X47.256 Y83.46 E697.2996
G0 F9000 X47.256 Y85.723
G1 F1125 X153.819 Y192.285 E709.32929
G0 F9000 X151.556 Y192.285
G1 F1125 X47.256 Y87.986 E721.10352
G0 F9000 X47.256 Y90.248
G1 F1125 X149.293 Y192.285 E732.62234
G0 F9000 X147.03 Y192.285
G1 F1125 X47.256 Y92.511 E743.88569
G0 F9000 X47.256 Y94.774
G1 F1125 X144.768 Y192.285 E754.89363
G0 F9000 X142.505 Y192.285
G1 F1125 X47.256 Y97.036 E765.64616
G0 F9000 X47.256 Y99.299
G1 F1125 X140.242 Y192.285 E776.14323
G0 F9000 X137.979 Y192.285
G1 F1125 X47.256 Y101.562 E786.38482
G0 F9000 X47.256 Y103.825
G1 F1125 X135.717 Y192.285 E796.37101
G0 F9000 X133.454 Y192.285
G1 F1125 X47.256 Y106.087 E806.10178
G0 F9000 X47.256 Y108.35
G1 F1125 X131.191 Y192.285 E815.57709
G0 F9000 X128.928 Y192.285
G1 F1125 X47.256 Y110.613 E824.79693
G0 F9000 X47.256 Y112.876
G1 F1125 X126.666 Y192.285 E833.76136
G0 F9000 X124.403 Y192.285
G1 F1125 X47.256 Y115.138 E842.47038
G0 F9000 X47.256 Y117.401
G1 F1125 X122.14 Y192.285 E850.92394
G0 F9000 X119.877 Y192.285
G1 F1125 X47.255 Y119.663 E859.12214
G0 F9000 X47.255 Y121.926
G1 F1125 X117.615 Y192.285 E867.06492
G0 F9000 X115.352 Y192.285
G1 F1125 X47.255 Y124.189 E874.75225
G0 F9000 X47.255 Y126.451
G1 F1125 X113.089 Y192.285 E882.18416
G0 F9000 X110.826 Y192.285
G1 F1125 X47.255 Y128.714 E889.3606
G0 F9000 X47.255 Y130.977
G1 F1125 X108.564 Y192.285 E896.28163
G0 F9000 X106.301 Y192.285
G1 F1125 X47.255 Y133.24 E902.9472
G0 F9000 X47.255 Y135.502
G1 F1125 X104.038 Y192.285 E909.35736
G0 F9000 X101.776 Y192.285
G1 F1125 X47.255 Y137.765 E915.5121
G0 F9000 X47.255 Y140.028
G1 F1125 X99.513 Y192.285 E921.41138
G0 F9000 X97.25 Y192.285
G1 F1125 X47.255 Y142.291 E927.05519
G0 F9000 X47.255 Y144.553
G1 F1125 X94.987 Y192.285 E932.44359
G0 F9000 X92.725 Y192.285
G1 F1125 X47.255 Y146.816 E937.57658
G0 F9000 X47.255 Y149.079
G1 F1125 X90.462 Y192.285 E942.4541
G0 F9000 X88.199 Y192.285
G1 F1125 X47.255 Y151.342 E947.07616
G0 F9000 X47.255 Y153.604
G1 F1125 X85.936 Y192.285 E951.44281
G0 F9000 X83.674 Y192.285
G1 F1125 X47.255 Y155.867 E955.55404
G0 F9000 X47.255 Y158.13
G1 F1125 X81.411 Y192.285 E959.40981
G0 F9000 X79.148 Y192.285
G1 F1125 X47.255 Y160.393 E963.01011
G0 F9000 X47.255 Y162.655
G1 F1125 X76.885 Y192.285 E966.355
G0 F9000 X74.623 Y192.285
G1 F1125 X47.255 Y164.918 E969.44448
G0 F9000 X47.255 Y167.181
G1 F1125 X72.36 Y192.285 E972.27849
G0 F9000 X70.097 Y192.285
G1 F1125 X47.255 Y169.443 E974.8571
G0 F9000 X47.255 Y171.706
G1 F1125 X67.834 Y192.285 E977.18023
G0 F9000 X65.572 Y192.285
G1 F1125 X47.255 Y173.969 E979.24796
G0 F9000 X47.255 Y176.232
G1 F1125 X63.309 Y192.285 E981.06021
G0 F9000 X61.028 Y192.267
G1 F1125 X47.263 Y178.502 E982.61413
G0 F9000 X47.592 Y181.094
G1 F1125 X58.46 Y191.962 E983.841
G0 F9000 X54.913 Y190.678
G1 F1125 X48.859 Y184.624 E984.52443
G1 F2700 E979.52443
G0 F300 X48.859 Y184.624 Z0.48
G0 F9000 X47.578 Y185.344
G0 X48.657 Y187.11
G0 X49.488 Y188.19
G0 X50.942 Y189.695
G0 X51.975 Y190.553
G0 X53.713 Y191.7
G0 X54.918 Y192.318
G0 X56.836 Y193.051
G0 X58.14 Y193.393
G0 X60.225 Y193.7
G0 X61.469 Y193.751
G0 X162.146 Y193.733
G0 X164.214 Y193.504
G0 X165.529 Y193.208
G0 X167.495 Y192.537
G0 X168.713 Y191.965
G0 X170.479 Y190.886
G0 X169.731 Y189.625
;TIME_ELAPSED:681.271192
;LAYER:-5
;TYPE:SUPPORT
G1 F2700 E984.52443
G1 F1125 X170.597 Y188.948 E984.61217
G1 X171.379 Y188.239 E984.69643
G1 X171.974 Y187.621 E984.76491
G1 X172.64 Y186.83 E984.84745
G1 X173.314 Y185.895 E984.93946
G1 X169.295 Y189.914 E985.39316
G1 X168.926 Y190.159 E985.42851
G1 X167.956 Y190.708 E985.51749
G1 X167.094 Y191.116 E985.59361
G1 X166.416 Y191.379 E985.65166
G1 X174.759 Y183.036 E986.59349
G1 X175.061 Y182.15 E986.66821
G1 X175.34 Y181.041 E986.7595
G1 X164.415 Y191.966 E987.9928
G1 X164.104 Y192.035 E988.01823
G1 X163.028 Y192.199 E988.10512
G1 X162.748 Y192.219 E988.12752
G1 X175.584 Y179.383 E989.57656
G1 X175.619 Y179.05 E989.60329
G1 X175.655 Y177.898 E989.69529
G1 X161.267 Y192.286 E991.31953
G1 X159.852 Y192.286 E991.43249
G1 X175.655 Y176.483 E993.21647
G1 X175.655 Y175.069 E993.32934
G1 X158.438 Y192.286 E995.27294
G1 X157.024 Y192.286 E995.38581
G1 X175.655 Y173.655 E997.48904
G1 X175.655 Y172.241 E997.60191
G1 X155.61 Y192.286 E999.86477
G1 X154.195 Y192.286 E999.97772
G1 X175.655 Y170.827 E1002.40025
G1 X175.655 Y169.412 E1002.5132
G1 X152.781 Y192.286 E1005.09542
G1 X151.367 Y192.286 E1005.20829
G1 X175.655 Y167.998 E1007.95013
G1 X175.655 Y166.584 E1008.063
G1 X149.953 Y192.286 E1010.96446
G1 X148.539 Y192.286 E1011.07733
G1 X175.655 Y165.17 E1014.13842
G1 X175.655 Y163.756 E1014.25129
G1 X147.124 Y192.286 E1017.47206
G1 X145.71 Y192.286 E1017.58494
G1 X175.655 Y162.341 E1020.96539
G1 X175.655 Y160.927 E1021.07826
G1 X144.296 Y192.286 E1024.61833
G1 X142.882 Y192.286 E1024.7312
G1 X175.655 Y159.513 E1028.4309
G1 X175.655 Y158.099 E1028.54377
G1 X141.468 Y192.286 E1032.4031
G1 X140.053 Y192.286 E1032.51605
G1 X175.655 Y156.684 E1036.53511
G1 X175.655 Y155.27 E1036.64798
G1 X138.639 Y192.286 E1040.82667
G1 X137.225 Y192.286 E1040.93954
G1 X175.655 Y153.856 E1045.27785
G1 X175.655 Y152.442 E1045.39072
G1 X135.811 Y192.286 E1049.88866
G1 X134.396 Y192.286 E1050.00161
G1 X175.655 Y151.028 E1054.65923
G1 X175.655 Y149.613 E1054.77218
G1 X132.982 Y192.286 E1059.58947
G1 X131.568 Y192.286 E1059.70235
G1 X175.655 Y148.199 E1064.67927
G1 X175.655 Y146.785 E1064.79214
G1 X130.154 Y192.286 E1069.92868
G1 X128.74 Y192.286 E1070.04156
G1 X175.655 Y145.371 E1075.33773
G1 X175.655 Y143.957 E1075.4506
G1 X127.325 Y192.286 E1080.90645
G1 X125.911 Y192.286 E1081.01932
G1 X175.655 Y142.542 E1086.63485
G1 X175.655 Y141.128 E1086.74773
G1 X124.497 Y192.286 E1092.52288
G1 X123.083 Y192.286 E1092.63575
G1 X175.655 Y139.714 E1098.57054
G1 X175.655 Y138.3 E1098.68341
G1 X121.669 Y192.286 E1104.77781
G1 X120.254 Y192.286 E1104.89077
G1 X175.655 Y136.885 E1111.14491
G1 X175.655 Y135.471 E1111.25778
G1 X118.84 Y192.286 E1117.67155
G1 X117.426 Y192.286 E1117.78442
G1 X175.655 Y134.057 E1124.35781
G1 X175.655 Y132.643 E1124.47068
G1 X116.012 Y192.286 E1131.2037
G1 X114.597 Y192.286 E1131.31665
G1 X175.655 Y131.229 E1138.20935
G1 X175.655 Y129.814 E1138.3223
G1 X113.183 Y192.286 E1145.37468
G1 X111.769 Y192.286 E1145.48755
G1 X175.655 Y128.4 E1152.69956
G1 X175.655 Y126.986 E1152.81243
G1 X110.356 Y192.285 E1160.18394
G1 X108.941 Y192.285 E1160.2969
G1 X175.655 Y125.572 E1167.82809
G1 X175.655 Y124.158 E1167.94096
G1 X107.527 Y192.285 E1175.63179
G1 X106.113 Y192.285 E1175.74466
G1 X175.655 Y122.743 E1183.59516
G1 X175.655 Y121.329 E1183.70803
G1 X104.699 Y192.285 E1191.71816
G1 X103.284 Y192.285 E1191.83111
G1 X175.655 Y119.915 E1200.00092
G1 X175.655 Y118.501 E1200.11379
G1 X101.87 Y192.285 E1208.44322
G1 X100.456 Y192.285 E1208.55609
G1 X175.655 Y117.086 E1217.0452
G1 X175.655 Y115.672 E1217.15808
G1 X99.042 Y192.285 E1225.80681
G1 X97.628 Y192.285 E1225.91968
G1 X175.655 Y114.258 E1234.72805
