;FLAVOR:Marlin
;TIME:27710
;Filament used: 21.4975m
;Layer height: 0.16
;MINX:52.901
;MINY:41.835
;MINZ:0.24
;MAXX:183.165
;MAXY:193.165
;MAXZ:25.95
;Generated with Cura_SteamEngine 5.2.2
M140 S50
M105
M190 S50
M104 S200
M105
M109 S200
M82 ;absolute extrusion mode
; Ender 3 Custom Start G-code
G92 E0 ; Reset Extruder
G28 ; Home all axes
G29 ; Automatic Bed Leveling (BLTouch)
G1 Z2.0 F3000 ; Move Z Axis up little to prevent scratching of Heat Bed
G1 X0.1 Y20 Z0.3 F5000.0 ; Move to start position
G1 X0.1 Y200.0 Z0.3 F1500.0 E15 ; Draw the first line
G1 X0.4 Y200.0 Z0.3 F5000.0 ; Move to side a little
G1 X0.4 Y20 Z0.3 F1500.0 E30 ; Draw the second line
G92 E0 ; Reset Extruder
G1 Z2.0 F3000 ; Move Z Axis up little to prevent scratching of Heat Bed
G1 X5 Y20 Z0.3 F5000.0 ; Move over to prevent blob squish
G92 E0
G92 E0
G1 F2700 E-5
;LAYER_COUNT:126
;LAYER:-6
M107
G0 F9000 X55.309 Y49.466 Z0.24
;TYPE:SUPPORT-INTERFACE
G1 F2700 E0
G1 F1125 X54.73 Y50.43 E0.08976
G1 X54.278 Y51.31 E0.16873
G1 X53.86 Y52.295 E0.25415
G1 X53.52 Y53.299 E0.33876
G1 X53.236 Y54.403 E0.42976
G1 X53.073 Y55.285 E0.50135
G1 X52.948 Y56.359 E0.58766
G1 X52.901 Y57.509 E0.67954
G1 X52.901 Y177.549 E10.26165
G1 X52.908 Y177.946 E10.29335
G1 X52.989 Y179.105 E10.38609
G1 X53.133 Y180.077 E10.46452
G1 X53.378 Y181.197 E10.55604
G1 X53.716 Y182.301 E10.64821
G1 X54.093 Y183.272 E10.73135
G1 X54.486 Y184.109 E10.80516
G1 X55.039 Y185.107 E10.89624
G1 X55.63 Y185.999 E10.98165
G1 X56.289 Y186.854 E11.06782
G1 X57.054 Y187.696 E11.15863
G1 X57.705 Y188.323 E11.23078
G1 X58.577 Y189.056 E11.32171
G1 X59.459 Y189.685 E11.40819
G1 X60.431 Y190.27 E11.49875
G1 X61.298 Y190.717 E11.57661
G1 X62.206 Y191.103 E11.65537
G1 X63.291 Y191.478 E11.74701
G1 X64.403 Y191.764 E11.83866
G1 X65.368 Y191.943 E11.917
G1 X66.36 Y192.052 E11.99667
G1 X67.49 Y192.099 E12.08695
G1 X167.55 Y192.099 E20.07417
G1 X167.946 Y192.092 E20.10578
G1 X169.106 Y192.011 E20.1986
G1 X170.075 Y191.867 E20.2768
G1 X171.12 Y191.639 E20.36218
G1 X172.215 Y191.318 E20.45327
G1 X173.288 Y190.9 E20.54519
G1 X174.109 Y190.514 E20.61761
G1 X175.107 Y189.961 E20.70868
G1 X175.999 Y189.371 E20.79405
G1 X176.841 Y188.721 E20.87896
G1 X177.696 Y187.944 E20.97119
G1 X178.323 Y187.293 E21.04333
G1 X179.054 Y186.423 E21.13404
G1 X179.683 Y185.545 E21.22026
G1 X180.192 Y184.709 E21.29839
G1 X180.715 Y183.705 E21.38875
G1 X181.14 Y182.709 E21.47519
G1 X181.478 Y181.712 E21.55923
G1 X181.764 Y180.597 E21.65111
G1 X181.942 Y179.631 E21.72952
G1 X182.063 Y178.493 E21.82087
G1 X182.1 Y177.492 E21.90083
G1 X182.1 Y57.669 E31.46562
G1 X182.092 Y57.052 E31.51488
G1 X182.011 Y55.892 E31.6077
G1 X181.867 Y54.923 E31.6859
G1 X181.621 Y53.797 E31.7779
G1 X181.316 Y52.779 E31.86273
G1 X180.9 Y51.712 E31.95415
G1 X180.514 Y50.891 E32.02656
G1 X179.999 Y49.961 E32.11142
G1 X179.378 Y49.015 E32.20175
G1 X178.708 Y48.144 E32.28947
G1 X177.944 Y47.304 E32.38011
G1 X177.295 Y46.677 E32.45214
G1 X176.426 Y45.947 E32.54274
G1 X175.548 Y45.318 E32.62895
G1 X174.57 Y44.73 E32.72004
G1 X173.69 Y44.278 E32.79901
G1 X172.705 Y43.86 E32.88443
G1 X171.701 Y43.52 E32.96904
G1 X170.597 Y43.236 E33.06004
G1 X169.715 Y43.073 E33.13164
G1 X168.641 Y42.948 E33.21795
G1 X167.509 Y42.901 E33.30838
G1 X67.448 Y42.901 E41.29569
G1 X67.054 Y42.908 E41.32714
G1 X65.897 Y42.989 E41.41972
G1 X64.922 Y43.133 E41.4984
G1 X63.797 Y43.379 E41.59032
G1 X62.789 Y43.682 E41.67434
G1 X61.712 Y44.1 E41.76656
G1 X60.891 Y44.486 E41.83898
G1 X59.961 Y45.001 E41.92384
G1 X59.013 Y45.624 E42.01439
G1 X58.144 Y46.292 E42.10188
G1 X57.304 Y47.056 E42.19252
G1 X56.677 Y47.705 E42.26455
G1 X55.947 Y48.574 E42.35515
G1 X55.309 Y49.466 E42.44269
G0 F9000 X55.989 Y49.201
G1 F1125 X181.699 Y174.911 E56.63392
G0 F9000 X181.699 Y177.174
G1 F1125 X55.105 Y50.58 E70.92495
G0 F9000 X54.371 Y52.108
G1 F1125 X181.573 Y179.31 E85.28461
G0 F9000 X181.196 Y181.196
G1 F1125 X53.803 Y53.803 E99.66583
G0 F9000 X53.428 Y55.691
G1 F1125 X180.627 Y182.89 E114.02515
G0 F9000 X179.892 Y184.417
G1 F1125 X53.3 Y57.825 E128.31595
G0 F9000 X53.3 Y60.088
G1 F1125 X179.009 Y185.797 E142.50707
G0 F9000 X177.999 Y187.05
G1 F1125 X53.3 Y62.351 E156.58417
G0 F9000 X53.3 Y64.614
G1 F1125 X176.853 Y188.167 E170.5319
G0 F9000 X175.586 Y189.163
G1 F1125 X53.3 Y66.876 E184.33666
G0 F9000 X53.3 Y69.139
G1 F1125 X174.178 Y190.017 E197.98241
G0 F9000 X172.625 Y190.727
G1 F1125 X53.3 Y71.402 E211.45285
G0 F9000 X53.3 Y73.664
G1 F1125 X170.909 Y191.273 E224.72957
G0 F9000 X168.99 Y191.617
G1 F1125 X53.3 Y75.927 E237.78966
G0 F9000 X53.3 Y78.19
G1 F1125 X166.808 Y191.698 E250.60342
G0 F9000 X164.545 Y191.698
G1 F1125 X53.3 Y80.453 E263.16172
G0 F9000 X53.3 Y82.715
G1 F1125 X162.283 Y191.698 E275.46466
G0 F9000 X160.02 Y191.698
G1 F1125 X53.3 Y84.978 E287.51213
G0 F9000 X53.3 Y87.241
G1 F1125 X157.757 Y191.698 E299.30414
G0 F9000 X155.494 Y191.698
G1 F1125 X53.3 Y89.504 E310.84069
G0 F9000 X53.3 Y91.766
G1 F1125 X153.232 Y191.698 E322.12187
G0 F9000 X150.969 Y191.698
G1 F1125 X53.3 Y94.029 E333.14759
G0 F9000 X53.3 Y96.292
G1 F1125 X148.706 Y191.698 E343.91785
G0 F9000 X146.443 Y191.698
G1 F1125 X53.3 Y98.555 E354.43263
G0 F9000 X53.3 Y100.817
G1 F1125 X144.181 Y191.698 E364.69207
G0 F9000 X141.918 Y191.698
G1 F1125 X53.3 Y103.08 E374.69603
G0 F9000 X53.3 Y105.343
G1 F1125 X139.655 Y191.698 E384.44453
G0 F9000 X137.392 Y191.698
G1 F1125 X53.3 Y107.606 E393.93756
G0 F9000 X53.3 Y109.868
G1 F1125 X135.13 Y191.698 E403.17524
G0 F9000 X132.867 Y191.698
G1 F1125 X53.3 Y112.131 E412.15745
G0 F9000 X53.3 Y114.394
G1 F1125 X130.604 Y191.698 E420.88419
G0 F9000 X128.342 Y191.698
G1 F1125 X53.3 Y116.657 E429.35553
G0 F9000 X53.3 Y118.919
G1 F1125 X126.079 Y191.698 E437.57145
G0 F9000 X123.816 Y191.698
G1 F1125 X53.3 Y121.182 E445.53191
G0 F9000 X53.3 Y123.445
G1 F1125 X121.553 Y191.698 E453.23689
G0 F9000 X119.291 Y191.698
G1 F1125 X53.3 Y125.708 E460.68647
G0 F9000 X53.3 Y127.97
G1 F1125 X117.027 Y191.698 E467.88058
G0 F9000 X114.764 Y191.698
G1 F1125 X53.3 Y130.233 E474.81923
G0 F9000 X53.3 Y132.496
G1 F1125 X112.502 Y191.698 E481.50246
G0 F9000 X110.239 Y191.698
G1 F1125 X53.3 Y134.758 E487.93028
G0 F9000 X53.3 Y137.021
G1 F1125 X107.976 Y191.698 E494.10264
G0 F9000 X105.713 Y191.698
G1 F1125 X53.3 Y139.284 E500.01953
G0 F9000 X53.3 Y141.547
G1 F1125 X103.451 Y191.698 E505.68101
G0 F9000 X101.188 Y191.698
G1 F1125 X53.3 Y143.809 E511.08707
G0 F9000 X53.3 Y146.072
G1 F1125 X98.925 Y191.698 E516.23767
G0 F9000 X96.662 Y191.698
G1 F1125 X53.3 Y148.335 E521.13281
G0 F9000 X53.3 Y150.598
G1 F1125 X94.4 Y191.698 E525.77253
G0 F9000 X92.137 Y191.698
G1 F1125 X53.3 Y152.86 E530.15684
G0 F9000 X53.3 Y155.123
G1 F1125 X89.874 Y191.698 E534.28569
G0 F9000 X87.611 Y191.698
G1 F1125 X53.3 Y157.386 E538.15907
G0 F9000 X53.3 Y159.649
G1 F1125 X85.349 Y191.698 E541.77704
G0 F9000 X83.086 Y191.698
G1 F1125 X53.3 Y161.911 E545.13959
G0 F9000 X53.3 Y164.174
G1 F1125 X80.823 Y191.698 E548.24668
G0 F9000 X78.56 Y191.698
G1 F1125 X53.3 Y166.437 E551.09831
G0 F9000 X53.3 Y168.7
G1 F1125 X76.298 Y191.698 E553.69452
G0 F9000 X74.035 Y191.698
G1 F1125 X53.3 Y170.962 E556.03532
G0 F9000 X53.3 Y173.225
G1 F1125 X71.772 Y191.698 E558.12066
G0 F9000 X69.51 Y191.698
G1 F1125 X53.3 Y175.488 E559.95058
G0 F9000 X53.305 Y177.756
G1 F1125 X67.235 Y191.686 E561.52312
G0 F9000 X64.696 Y191.41
G1 F1125 X53.593 Y180.306 E562.77658
G0 F9000 X54.747 Y183.723
G1 F1125 X61.281 Y190.257 E563.5142
G1 F2700 E558.5142
G0 F9000 X60.962 Y191.731
G0 X62.88 Y192.464
G0 X64.184 Y192.806
G0 X66.269 Y193.113
G0 X67.513 Y193.164
G0 X168.19 Y193.146
G0 X170.258 Y192.917
G0 X171.573 Y192.621
G0 X173.539 Y191.95
G0 X174.757 Y191.378
G0 X176.523 Y190.299
G0 X177.603 Y189.468
G0 X179.108 Y188.014
G0 X179.966 Y186.981
G0 X181.113 Y185.243
G0 X181.731 Y184.038
G0 X182.464 Y182.12
G0 X182.806 Y180.816
G0 X183.113 Y178.731
G0 X183.127 Y178.386
G0 X183.165 Y172.648
G0 X181.699 Y172.648
G1 F2700 E563.5142
G1 F1125 X56.997 Y47.946 E577.59164
G0 F9000 X58.145 Y46.831
G1 F1125 X181.699 Y170.385 E591.53948
G0 F9000 X181.699 Y168.123
G1 F1125 X59.415 Y45.838 E605.34401
G0 F9000 X60.821 Y44.981
G1 F1125 X181.699 Y165.86 E618.98982
G0 F9000 X181.699 Y163.597
G1 F1125 X62.374 Y44.272 E632.46026
G0 F9000 X64.089 Y43.724
G1 F1125 X181.699 Y161.334 E645.73709
G0 F9000 X181.699 Y159.072
G1 F1125 X66.009 Y43.382 E658.79718
G0 F9000 X68.191 Y43.301
G1 F1125 X181.699 Y156.809 E671.61094
G0 F9000 X181.699 Y154.546
G1 F1125 X70.453 Y43.301 E684.16929
G0 F9000 X72.716 Y43.301
G1 F1125 X181.699 Y152.283 E696.47218
G0 F9000 X181.699 Y150.021
G1 F1125 X74.979 Y43.301 E708.51966
G0 F9000 X77.242 Y43.301
G1 F1125 X181.699 Y147.758 E720.31167
G0 F9000 X181.699 Y145.495
G1 F1125 X79.504 Y43.301 E731.84826
G0 F9000 X81.767 Y43.301
G1 F1125 X181.699 Y143.232 E743.12939
G0 F9000 X181.699 Y140.97
G1 F1125 X84.03 Y43.301 E754.15512
G0 F9000 X86.293 Y43.301
G1 F1125 X181.699 Y138.707 E764.92537
G0 F9000 X181.699 Y136.444
G1 F1125 X88.555 Y43.301 E775.44021
G0 F9000 X90.818 Y43.301
G1 F1125 X181.699 Y134.181 E785.69959
G0 F9000 X181.699 Y131.919
G1 F1125 X93.081 Y43.301 E795.70355
G0 F9000 X95.344 Y43.301
G1 F1125 X181.699 Y129.656 E805.45205
G0 F9000 X181.699 Y127.393
G1 F1125 X97.606 Y43.301 E814.94514
G0 F9000 X99.869 Y43.301
G1 F1125 X181.699 Y125.131 E824.18282
G0 F9000 X181.699 Y122.868
G1 F1125 X102.132 Y43.301 E833.16503
G0 F9000 X104.395 Y43.301
G1 F1125 X181.699 Y120.605 E841.89177
G0 F9000 X181.699 Y118.342
G1 F1125 X106.657 Y43.301 E850.36311
G0 F9000 X108.92 Y43.301
G1 F1125 X181.699 Y116.08 E858.57903
G0 F9000 X181.699 Y113.817
G1 F1125 X111.183 Y43.301 E866.53948
G0 F9000 X113.446 Y43.301
G1 F1125 X181.699 Y111.554 E874.24447
G0 F9000 X181.699 Y109.291
G1 F1125 X115.708 Y43.301 E881.69405
G0 F9000 X117.971 Y43.301
G1 F1125 X181.699 Y107.029 E888.88822
G0 F9000 X181.699 Y104.766
G1 F1125 X120.234 Y43.301 E895.82692
G0 F9000 X122.497 Y43.301
G1 F1125 X181.699 Y102.503 E902.51015
G0 F9000 X181.699 Y100.24
G1 F1125 X124.759 Y43.301 E908.93797
G0 F9000 X127.022 Y43.301
G1 F1125 X181.699 Y97.978 E915.11039
G0 F9000 X181.699 Y95.715
G1 F1125 X129.285 Y43.301 E921.02733
G0 F9000 X131.548 Y43.301
G1 F1125 X181.699 Y93.452 E926.68881
G0 F9000 X181.699 Y91.189
G1 F1125 X133.81 Y43.301 E932.09488
G0 F9000 X136.073 Y43.301
G1 F1125 X181.699 Y88.927 E937.24553
G0 F9000 X181.699 Y86.664
G1 F1125 X138.336 Y43.301 E942.14072
G0 F9000 X140.598 Y43.301
G1 F1125 X181.699 Y84.401 E946.7805
G0 F9000 X181.699 Y82.138
G1 F1125 X142.861 Y43.301 E951.16482
G0 F9000 X145.124 Y43.301
G1 F1125 X181.699 Y79.876 E955.29372
G0 F9000 X181.699 Y77.613
G1 F1125 X147.387 Y43.301 E959.16715
G0 F9000 X149.649 Y43.301
G1 F1125 X181.699 Y75.35 E962.78518
G0 F9000 X181.699 Y73.087
G1 F1125 X151.912 Y43.301 E966.14774
G0 F9000 X154.175 Y43.301
G1 F1125 X181.699 Y70.825 E969.25488
G0 F9000 X181.699 Y68.562
G1 F1125 X156.438 Y43.301 E972.10656
G0 F9000 X158.7 Y43.301
G1 F1125 X181.699 Y66.299 E974.70283
G0 F9000 X181.699 Y64.037
G1 F1125 X160.963 Y43.301 E977.04369
G0 F9000 X163.226 Y43.301
G1 F1125 X181.699 Y61.774 E979.12908
G0 F9000 X181.699 Y59.511
G1 F1125 X165.489 Y43.301 E980.95901
G0 F9000 X167.763 Y43.312
G1 F1125 X181.693 Y57.243 E982.5316
G0 F9000 X181.406 Y54.693
G1 F1125 X170.302 Y43.588 E983.78518
G0 F9000 X173.719 Y44.743
G1 F1125 X180.252 Y51.276 E984.52268
G1 F2700 E979.52268
G0 F300 X180.252 Y51.276 Z0.48
G0 F9000 X181.466 Y50.414
G0 X180.819 Y49.26
G0 X179.599 Y47.556
G0 X178.703 Y46.555
G0 X177.148 Y45.162
G0 X176.043 Y44.374
G0 X174.249 Y43.368
G0 X172.985 Y42.831
G0 X170.988 Y42.232
G0 X169.672 Y41.991
G0 X167.487 Y41.836
G0 X66.81 Y41.854
G0 X64.742 Y42.083
G0 X63.427 Y42.379
G0 X61.461 Y43.05
G0 X60.243 Y43.622
G0 X58.477 Y44.701
G0 X57.397 Y45.532
G0 X55.892 Y46.986
G0 X55.034 Y48.019
G0 X54.106 Y49.426
G0 X53.393 Y50.701
G0 X54.695 Y51.37
;TIME_ELAPSED:681.400351
;LAYER:-5
;TYPE:SUPPORT
G1 F2700 E984.52268
G1 F1125 X61.359 Y44.706 E985.27497
G1 X61.003 Y44.874 E985.30639
G1 X60.029 Y45.425 E985.39572
G1 X59.223 Y45.961 E985.47298
G1 X58.358 Y46.635 E985.56052
G1 X57.576 Y47.347 E985.64494
G1 X56.982 Y47.963 E985.71325
G1 X56.315 Y48.756 E985.79596
G1 X55.653 Y49.67 E985.88605
G1 X55.089 Y50.601 E985.97294
G1 X54.638 Y51.481 E986.05187
G1 X54.211 Y52.499 E986.13999
G1 X53.894 Y53.436 E986.21895
G1 X53.843 Y53.636 E986.23543
G1 X63.631 Y43.849 E987.34032
G1 X63.991 Y43.743 E987.37028
G1 X64.837 Y43.553 E987.43949
G1 X65.431 Y43.463 E987.48745
G1 X53.452 Y55.442 E988.83974
G1 X53.336 Y56.535 E988.92748
G1 X53.32 Y56.988 E988.96367
G1 X66.995 Y43.313 E990.50742
G1 X67.565 Y43.3 E990.55293
G1 X68.422 Y43.3 E990.62134
G1 X53.3 Y58.422 E992.32844
G1 X53.3 Y59.836 E992.44131
G1 X69.836 Y43.3 E994.30804
G1 X71.25 Y43.3 E994.42091
G1 X53.3 Y61.251 E996.44732
G1 X53.3 Y62.665 E996.56019
G1 X72.665 Y43.3 E998.74628
G1 X74.079 Y43.3 E998.85915
G1 X53.3 Y64.079 E1001.20486
G1 X53.3 Y65.493 E1001.31773
G1 X75.493 Y43.3 E1003.82307
G1 X76.907 Y43.3 E1003.93594
G1 X53.3 Y66.907 E1006.60091
G1 X53.3 Y68.322 E1006.71386
G1 X78.321 Y43.3 E1009.5385
G1 X79.736 Y43.3 E1009.65145
G1 X53.3 Y69.736 E1012.63578
G1 X53.3 Y71.15 E1012.74865
G1 X81.15 Y43.3 E1015.8926
G1 X82.564 Y43.3 E1016.00547
G1 X53.3 Y72.564 E1019.30904
G1 X53.3 Y73.978 E1019.42191
G1 X83.978 Y43.3 E1022.88511
G1 X85.393 Y43.3 E1022.99806
G1 X53.3 Y75.393 E1026.621
G1 X53.3 Y76.807 E1026.73387
G1 X86.807 Y43.3 E1030.51643
G1 X88.221 Y43.3 E1030.6293
G1 X53.3 Y78.221 E1034.57148
G1 X53.3 Y79.635 E1034.68436
G1 X89.635 Y43.3 E1038.78616
G1 X91.049 Y43.3 E1038.89904
G1 X53.3 Y81.049 E1043.16047
G1 X53.3 Y82.464 E1043.27342
G1 X92.464 Y43.3 E1047.69459
G1 X93.878 Y43.3 E1047.80746
G1 X53.3 Y83.878 E1052.38826
G1 X53.3 Y85.292 E1052.50113
G1 X95.292 Y43.3 E1057.24155
G1 X96.706 Y43.3 E1057.35442
G1 X53.3 Y86.706 E1062.25447
G1 X53.3 Y88.121 E1062.36742
G1 X98.12 Y43.3 E1067.42714
G1 X99.535 Y43.3 E1067.54009
G1 X53.3 Y89.535 E1072.7595
G1 X53.3 Y90.949 E1072.87237
G1 X100.949 Y43.3 E1078.2514
G1 X102.363 Y43.3 E1078.36427
G1 X53.3 Y92.363 E1083.90293
G1 X53.3 Y93.777 E1084.0158
G1 X103.777 Y43.3 E1089.71408
G1 X105.192 Y43.3 E1089.82703
G1 X53.3 Y95.192 E1095.68505
G1 X53.3 Y96.606 E1095.79792
G1 X106.606 Y43.3 E1101.81556
G1 X108.02 Y43.3 E1101.92844
G1 X53.3 Y98.02 E1108.1057
G1 X53.3 Y99.434 E1108.21857
G1 X109.434 Y43.3 E1114.55546
G1 X110.848 Y43.3 E1114.66834
G1 X53.3 Y100.848 E1121.16485
G1 X53.3 Y102.263 E1121.2778
G1 X112.263 Y43.3 E1127.93406
G1 X113.677 Y43.3 E1128.04693
G1 X53.3 Y103.677 E1134.86281
G1 X53.3 Y105.091 E1134.97568
G1 X115.091 Y43.3 E1141.95118
G1 X116.505 Y43.3 E1142.06405
G1 X53.3 Y106.505 E1149.19918
G1 X53.3 Y107.92 E1149.31213
G1 X117.919 Y43.3 E1156.60694
G1 X119.334 Y43.3 E1156.71989
G1 X53.3 Y109.334 E1164.17438
G1 X53.3 Y110.748 E1164.28725
G1 X120.748 Y43.3 E1171.90136
G1 X122.162 Y43.3 E1172.01423
G1 X53.3 Y112.162 E1179.78797
G1 X53.3 Y113.576 E1179.90084
G1 X123.576 Y43.3 E1187.8342
G1 X124.991 Y43.3 E1187.94716
G1 X53.3 Y114.991 E1196.04026
G1 X53.3 Y116.405 E1196.15313
G1 X126.405 Y43.3 E1204.40585
G1 X127.819 Y43.3 E1204.51872
G1 X53.3 Y117.819 E1212.93107
G1 X53.3 Y119.233 E1213.04394
G1 X129.233 Y43.3 E1221.61592
G1 X130.647 Y43.3 E1221.72879
G1 X53.3 Y120.647 E1230.46039
G1 X53.3 Y122.062 E1230.57334
G1 X132.062 Y43.3 E1239.46467
G1 X133.476 Y43.3 E1239.57754
G1 X53.3 Y123.476 E1248.6285
G1 X53.3 Y124.89 E1248.74137
G1 X134.89 Y43.3 E1257.95196
G1 X136.304 Y43.3 E1258.06483
G1 X53.3 Y126.304 E1267.43504
G1 X53.3 Y127.719 E1267.54799
G1 X137.718 Y43.3 E1277.07788
