;FLAVOR:Marlin
;TIME:21232
;Filament used: 14.1643m
;Layer height: 0.2
;MINX:56.5
;MINY:46.5
;MINZ:0.2
;MAXX:178.5
;MAXY:188.5
;MAXZ:25
;Generated with Cura_SteamEngine 5.2.2
M140 S50
M105
M190 S50
M104 S200
M105
M109 S200
M82 ;absolute extrusion mode
; Ender 3 Custom Start G-code
G92 E0 ; Reset Extruder
G28 ; Home all axes
G29 ; Automatic Bed Leveling (BLTouch)
G1 Z2.0 F3000 ; Move Z Axis up little to prevent scratching of Heat Bed
G1 X0.1 Y20 Z0.3 F5000.0 ; Move to start position
G1 X0.1 Y200.0 Z0.3 F1500.0 E15 ; Draw the first line
G1 X0.4 Y200.0 Z0.3 F5000.0 ; Move to side a little
G1 X0.4 Y20 Z0.3 F1500.0 E30 ; Draw the second line
G92 E0 ; Reset Extruder
G1 Z2.0 F3000 ; Move Z Axis up little to prevent scratching of Heat Bed
G1 X5 Y20 Z0.3 F5000.0 ; Move over to prevent blob squish
G92 E0
G92 E0
G1 F2700 E-5
;LAYER_COUNT:125
;LAYER:0
M107
G0 F6000 X59.066 Y50.458 Z0.2
;TYPE:SKIRT
G1 F2700 E0
G1 F1200 X59.698 Y49.764 E0.03122
G1 X60.386 Y49.127 E0.0624
G1 X61.126 Y48.551 E0.09359
G1 X61.912 Y48.039 E0.12479
G1 X62.739 Y47.597 E0.15598
G1 X63.601 Y47.227 E0.18718
G1 X64.491 Y46.931 E0.21838
G1 X65.403 Y46.713 E0.24957
G1 X66.33 Y46.572 E0.28075
G1 X67.201 Y46.513 E0.30979
G1 X67.83 Y46.5 E0.33071
G1 X166.951 Y46.501 E3.62749
G1 X167.649 Y46.511 E3.65071
G1 X168.585 Y46.565 E3.68189
G1 X169.513 Y46.697 E3.71307
G1 X170.427 Y46.909 E3.74428
G1 X171.319 Y47.198 E3.77546
G1 X172.184 Y47.561 E3.80666
G1 X173.014 Y47.997 E3.83785
G1 X173.805 Y48.502 E3.86906
G1 X174.549 Y49.073 E3.90025
G1 X175.242 Y49.705 E3.93145
G1 X175.879 Y50.393 E3.96263
G1 X176.454 Y51.134 E3.99383
G1 X176.965 Y51.92 E4.02501
G1 X177.407 Y52.748 E4.05623
G1 X177.776 Y53.61 E4.08741
G1 X178.071 Y54.5 E4.1186
G1 X178.289 Y55.412 E4.14979
G1 X178.429 Y56.34 E4.181
G1 X178.487 Y57.201 E4.2097
G1 X178.5 Y57.83 E4.23063
G1 X178.499 Y176.9 E8.19091
G1 X178.49 Y177.627 E8.21509
G1 X178.439 Y178.564 E8.24631
G1 X178.307 Y179.492 E8.27748
G1 X178.098 Y180.406 E8.30867
G1 X177.811 Y181.299 E8.33986
G1 X177.449 Y182.165 E8.37108
G1 X177.015 Y182.996 E8.40226
G1 X176.511 Y183.787 E8.43346
G1 X175.942 Y184.532 E8.46464
G1 X175.311 Y185.227 E8.49586
G1 X174.624 Y185.865 E8.52704
G1 X173.885 Y186.442 E8.55823
G1 X173.099 Y186.954 E8.58943
G1 X172.273 Y187.397 E8.6206
G1 X171.411 Y187.769 E8.65183
G1 X170.522 Y188.065 E8.68299
G1 X169.61 Y188.285 E8.71419
G1 X168.683 Y188.426 E8.74538
G1 X167.799 Y188.487 E8.77485
G1 X167.17 Y188.5 E8.79578
G1 X68.065 Y188.499 E12.09202
G1 X67.367 Y188.49 E12.11524
G1 X66.431 Y188.438 E12.14642
G1 X65.502 Y188.306 E12.17763
G1 X64.588 Y188.096 E12.20882
G1 X63.695 Y187.809 E12.24002
G1 X62.83 Y187.446 E12.27122
G1 X61.999 Y187.012 E12.3024
G1 X61.208 Y186.508 E12.3336
G1 X60.463 Y185.938 E12.3648
G1 X59.769 Y185.307 E12.39599
G1 X59.132 Y184.62 E12.42715
G1 X58.555 Y183.88 E12.45836
G1 X58.043 Y183.094 E12.48956
G1 X57.6 Y182.267 E12.52077
G1 X57.229 Y181.406 E12.55195
G1 X56.933 Y180.516 E12.58315
G1 X56.714 Y179.604 E12.61434
G1 X56.573 Y178.677 E12.64553
G1 X56.513 Y177.788 E12.67516
G1 X56.5 Y177.158 E12.69612
G1 X56.501 Y58.025 E16.6585
G1 X56.51 Y57.36 E16.68062
G1 X56.563 Y56.424 E16.7118
G1 X56.695 Y55.495 E16.74301
G1 X56.906 Y54.581 E16.77421
G1 X57.194 Y53.689 E16.80539
G1 X57.557 Y52.824 E16.83659
G1 X57.992 Y51.993 E16.86779
G1 X58.496 Y51.203 E16.89895
G1 X59.066 Y50.458 E16.93015
G0 F6000 X59.461 Y50.611
G1 F1200 X60.089 Y49.939 E16.96074
G1 X60.774 Y49.323 E16.99138
G1 X61.51 Y48.77 E17.022
G1 X62.291 Y48.282 E17.05263
G1 X63.111 Y47.864 E17.08325
G1 X63.965 Y47.519 E17.11388
G1 X64.845 Y47.249 E17.1445
G1 X65.745 Y47.057 E17.1751
G1 X66.659 Y46.943 E17.20574
G1 X67.212 Y46.913 E17.22416
G1 X67.83 Y46.9 E17.24472
G1 X166.945 Y46.901 E20.5413
G1 X167.643 Y46.911 E20.56451
G1 X168.562 Y46.964 E20.59513
G1 X169.473 Y47.097 E20.62575
G1 X170.369 Y47.308 E20.65637
G1 X171.243 Y47.596 E20.68698
G1 X172.09 Y47.959 E20.71763
G1 X172.901 Y48.394 E20.74823
G1 X173.671 Y48.898 E20.77884
G1 X174.395 Y49.467 E20.80947
G1 X175.067 Y50.097 E20.84011
G1 X175.682 Y50.782 E20.87073
G1 X176.235 Y51.518 E20.90134
G1 X176.722 Y52.299 E20.93196
G1 X177.139 Y53.12 E20.96258
G1 X177.484 Y53.974 E20.99322
G1 X177.753 Y54.854 E21.02382
G1 X177.945 Y55.755 E21.05446
G1 X178.058 Y56.668 E21.08506
G1 X178.087 Y57.212 E21.10318
G1 X178.1 Y57.83 E21.12374
G1 X178.099 Y176.895 E25.08386
G1 X178.09 Y177.622 E25.10804
G1 X178.039 Y178.541 E25.13865
G1 X177.908 Y179.453 E25.1693
G1 X177.698 Y180.349 E25.19991
G1 X177.412 Y181.224 E25.23053
G1 X177.051 Y182.071 E25.26115
G1 X176.617 Y182.883 E25.29177
G1 X176.115 Y183.655 E25.3224
G1 X175.547 Y184.38 E25.35303
G1 X174.919 Y185.053 E25.38365
G1 X174.235 Y185.669 E25.41426
G1 X173.5 Y186.223 E25.44488
G1 X172.72 Y186.712 E25.4755
G1 X171.9 Y187.131 E25.50612
G1 X171.047 Y187.477 E25.53674
G1 X170.167 Y187.748 E25.56737
G1 X169.267 Y187.941 E25.59798
G1 X168.353 Y188.056 E25.62862
G1 X167.788 Y188.087 E25.64744
G1 X167.17 Y188.1 E25.668
G1 X68.07 Y188.099 E28.96408
G1 X67.372 Y188.09 E28.9873
G1 X66.453 Y188.038 E29.01791
G1 X65.542 Y187.907 E29.04852
G1 X64.646 Y187.697 E29.07913
G1 X63.771 Y187.41 E29.10976
G1 X62.924 Y187.048 E29.1404
G1 X62.112 Y186.614 E29.17102
G1 X61.341 Y186.112 E29.20162
G1 X60.616 Y185.544 E29.23225
G1 X59.943 Y184.915 E29.26289
G1 X59.328 Y184.231 E29.29348
G1 X58.774 Y183.496 E29.3241
G1 X58.286 Y182.715 E29.35473
G1 X57.867 Y181.895 E29.38535
G1 X57.521 Y181.042 E29.41597
G1 X57.251 Y180.162 E29.44659
G1 X57.058 Y179.261 E29.47723
G1 X56.944 Y178.348 E29.50783
G1 X56.913 Y177.777 E29.52685
G1 X56.9 Y177.158 E29.54745
G1 X56.901 Y58.031 E33.50963
G1 X56.91 Y57.366 E33.53175
G1 X56.962 Y56.446 E33.5624
G1 X57.094 Y55.535 E33.59301
G1 X57.305 Y54.639 E33.62363
G1 X57.592 Y53.764 E33.65426
G1 X57.955 Y52.918 E33.68488
G1 X58.389 Y52.106 E33.7155
G1 X58.892 Y51.335 E33.74612
G1 X59.461 Y50.611 E33.77674
G0 F6000 X59.855 Y50.767
G1 F1200 X60.481 Y50.117 E33.80676
G1 X61.162 Y49.524 E33.83679
G1 X61.894 Y48.994 E33.86685
G1 X62.669 Y48.531 E33.89688
G1 X63.482 Y48.138 E33.92691
G1 X64.327 Y47.818 E33.95696
G1 X65.196 Y47.575 E33.98697
G1 X66.084 Y47.409 E34.01702
G1 X67.223 Y47.313 E34.05504
G1 X67.83 Y47.3 E34.07523
G1 X166.939 Y47.301 E37.37161
G1 X167.637 Y47.311 E37.39483
G1 X168.539 Y47.364 E37.42488
G1 X169.432 Y47.496 E37.45491
G1 X170.31 Y47.707 E37.48494
G1 X171.166 Y47.995 E37.51498
G1 X171.993 Y48.357 E37.545
G1 X172.785 Y48.792 E37.57506
G1 X173.536 Y49.294 E37.6051
G1 X174.239 Y49.861 E37.63514
G1 X174.889 Y50.488 E37.66518
G1 X175.481 Y51.17 E37.69522
G1 X176.011 Y51.901 E37.72525
G1 X176.473 Y52.677 E37.75529
G1 X176.866 Y53.49 E37.78532
G1 X177.184 Y54.335 E37.81535
G1 X177.427 Y55.205 E37.84539
G1 X177.592 Y56.093 E37.87543
G1 X177.687 Y57.223 E37.91315
G1 X177.7 Y57.83 E37.93334
G1 X177.699 Y176.89 E41.8933
G1 X177.69 Y177.617 E41.91748
G1 X177.639 Y178.519 E41.94753
G1 X177.508 Y179.413 E41.97758
G1 X177.299 Y180.291 E42.0076
G1 X177.013 Y181.148 E42.03765
G1 X176.652 Y181.976 E42.06769
G1 X176.22 Y182.768 E42.09769
G1 X175.719 Y183.52 E42.12775
G1 X175.153 Y184.224 E42.15779
G1 X174.528 Y184.875 E42.18781
G1 X173.847 Y185.469 E42.21786
G1 X173.116 Y186 E42.24792
G1 X172.342 Y186.464 E42.27793
G1 X171.529 Y186.858 E42.30798
G1 X170.685 Y187.178 E42.338
G1 X169.815 Y187.423 E42.36806
G1 X168.928 Y187.589 E42.39808
G1 X167.777 Y187.687 E42.4365
G1 X167.17 Y187.7 E42.45669
G1 X68.075 Y187.699 E45.7526
G1 X67.377 Y187.69 E45.77582
G1 X66.476 Y187.639 E45.80584
G1 X65.582 Y187.507 E45.83589
G1 X64.704 Y187.298 E45.86591
G1 X63.847 Y187.011 E45.89597
G1 X63.02 Y186.65 E45.92598
G1 X62.227 Y186.217 E45.95604
G1 X61.476 Y185.716 E45.98606
G1 X60.772 Y185.15 E46.01611
G1 X60.121 Y184.524 E46.04614
G1 X59.528 Y183.843 E46.07618
G1 X58.998 Y183.112 E46.10621
G1 X58.534 Y182.337 E46.13625
G1 X58.14 Y181.524 E46.1663
G1 X57.82 Y180.68 E46.19632
G1 X57.576 Y179.81 E46.22638
G1 X57.41 Y178.922 E46.25642
G1 X57.313 Y177.767 E46.29497
G1 X57.3 Y177.158 E46.31523
G1 X57.301 Y58.036 E50.27725
G1 X57.31 Y57.371 E50.29937
G1 X57.362 Y56.469 E50.32942
G1 X57.494 Y55.576 E50.35944
G1 X57.704 Y54.698 E50.38947
G1 X57.991 Y53.841 E50.41953
G1 X58.353 Y53.014 E50.44955
G1 X58.786 Y52.222 E50.47958
G1 X59.288 Y51.471 E50.50962
G1 X59.855 Y50.767 E50.53969
G1 F2700 E45.53969
;MESH:StudentBuddy FinalDesign 01 FrontHalf.STL
G0 F6000 X93.552 Y110.797
G0 X98.845 Y124.981
;TYPE:WALL-INNER
G1 F2700 E50.53969
G1 F1200 X97.511 Y125.101 E50.58423
G1 X96.167 Y124.984 E50.6291
G1 X94.895 Y124.643 E50.6729
G1 X93.7 Y124.085 E50.71677
G1 X92.629 Y123.333 E50.7603
G1 X91.668 Y122.372 E50.8055
G1 X90.925 Y121.315 E50.84847
G1 X90.352 Y120.083 E50.89366
G1 X90.012 Y118.806 E50.93762
G1 X89.897 Y117.503 E50.98112
G1 X90.012 Y116.194 E51.02483
G1 X90.352 Y114.917 E51.06878
G1 X90.925 Y113.685 E51.11397
G1 X91.68 Y112.61 E51.15766
G1 X92.61 Y111.68 E51.20141
G1 X93.7 Y110.916 E51.24568
G1 X94.896 Y110.357 E51.28959
G1 X96.175 Y110.013 E51.33364
G1 X97.5 Y109.897 E51.37788
G1 X98.825 Y110.013 E51.42212
G1 X100.104 Y110.357 E51.46617
G1 X101.3 Y110.916 E51.51008
G1 X102.385 Y111.679 E51.5542
G1 X103.311 Y112.603 E51.5977
G1 X104.076 Y113.686 E51.64181
G1 X104.632 Y114.873 E51.6854
G1 X104.98 Y116.151 E51.72946
G1 X105.1 Y117.525 E51.77533
G1 X104.98 Y118.849 E51.81955
G1 X104.633 Y120.124 E51.8635
G1 X104.073 Y121.318 E51.90736
G1 X103.335 Y122.368 E51.95005
G1 X102.388 Y123.322 E51.99475
G1 X101.296 Y124.087 E52.0391
G1 X101.093 Y124.183 E52.04657
G1 X100.115 Y124.637 E52.08243
G1 X98.845 Y124.981 E52.12619
G0 F6000 X98.872 Y125.077
G0 X97.583 Y125.197
G0 X97.504 Y124.701
;TYPE:WALL-OUTER
G1 F1200 X96.254 Y124.593 E52.16792
G1 X95.03 Y124.264 E52.21008
G1 X93.9 Y123.738 E52.25154
G1 X92.877 Y123.019 E52.29312
G1 X91.988 Y122.132 E52.33489
G1 X91.265 Y121.105 E52.37667
G1 X90.732 Y119.957 E52.41876
G1 X90.408 Y118.748 E52.46039
G1 X90.3 Y117.484 E52.50259
G1 X90.41 Y116.241 E52.54409
G1 X90.732 Y115.043 E52.58535
G1 X91.265 Y113.895 E52.62745
G1 X91.987 Y112.87 E52.66915
G1 X92.86 Y111.996 E52.71024
G1 X93.9 Y111.262 E52.75257
G1 X95.054 Y110.728 E52.79487
G1 X96.264 Y110.406 E52.83651
G1 X97.518 Y110.3 E52.87837
G1 X98.77 Y110.412 E52.92018
G1 X99.979 Y110.74 E52.96184
G1 X101.1 Y111.262 E53.00297
G1 X102.127 Y111.985 E53.04474
G1 X103.012 Y112.869 E53.08635
G1 X103.741 Y113.906 E53.12851
G1 X104.259 Y115.019 E53.16934
G1 X104.59 Y116.238 E53.21135
G1 X104.7 Y117.522 E53.25421
G1 X104.593 Y118.745 E53.29505
G1 X104.269 Y119.954 E53.33668
G1 X103.734 Y121.106 E53.37892
G1 X103.02 Y122.122 E53.42023
G1 X102.129 Y123.014 E53.46216
G1 X101.099 Y123.739 E53.50405
G1 X100.925 Y123.82 E53.51044
G1 X99.968 Y124.265 E53.54554
G1 X98.751 Y124.592 E53.58745
G1 X97.504 Y124.701 E53.62909
G1 F2700 E48.62909
G0 F6000 X97.583 Y125.197
G0 X101.17 Y124.346
G0 X133.831 Y124.347
G0 X136.184 Y124.987
;TYPE:WALL-INNER
G1 F2700 E53.62909
G1 F1200 X134.885 Y124.637 E53.67383
G1 X133.704 Y124.087 E53.71716
G1 X132.612 Y123.322 E53.76151
G1 X131.665 Y122.368 E53.80622
G1 X130.927 Y121.318 E53.8489
G1 X130.367 Y120.124 E53.89277
G1 X130.02 Y118.849 E53.93672
G1 X129.9 Y117.475 E53.98259
G1 X130.02 Y116.151 E54.02681
G1 X130.367 Y114.876 E54.07076
G1 X130.924 Y113.686 E54.11446
G1 X131.667 Y112.63 E54.1574
G1 X132.609 Y111.68 E54.2019
G1 X133.7 Y110.916 E54.2462
G1 X134.896 Y110.357 E54.29011
G1 X136.175 Y110.013 E54.33416
G1 X137.5 Y109.897 E54.3784
G1 X138.825 Y110.013 E54.42264
G1 X140.104 Y110.357 E54.46669
G1 X141.3 Y110.916 E54.5106
G1 X142.385 Y111.679 E54.55471
G1 X143.323 Y112.613 E54.59874
G1 X144.075 Y113.685 E54.64229
G1 X144.647 Y114.914 E54.68738
G1 X144.986 Y116.178 E54.73091
G1 X145.103 Y117.497 E54.77495
G1 X144.986 Y118.822 E54.81919
G1 X144.648 Y120.083 E54.86261
G1 X144.075 Y121.315 E54.9078
G1 X143.332 Y122.372 E54.95078
G1 X142.371 Y123.333 E54.99598
G1 X141.323 Y124.071 E55.03861
G1 X140.121 Y124.634 E55.08276
G1 X138.833 Y124.984 E55.12715
G1 X137.526 Y125.1 E55.17079
G1 X136.184 Y124.987 E55.21559
G0 F6000 X136.249 Y124.592
;TYPE:WALL-OUTER
G1 F1200 X135.032 Y124.265 E55.2575
G1 X133.901 Y123.739 E55.29899
G1 X132.882 Y123.023 E55.34041
G1 X131.98 Y122.122 E55.38281
G1 X131.266 Y121.106 E55.42411
G1 X130.728 Y119.945 E55.46667
G1 X130.41 Y118.762 E55.50742
G1 X130.3 Y117.478 E55.55028
G1 X130.41 Y116.238 E55.59168
G1 X130.731 Y115.046 E55.63274
G1 X131.259 Y113.906 E55.67453
G1 X131.996 Y112.86 E55.71709
G1 X132.86 Y111.996 E55.75773
G1 X133.9 Y111.262 E55.80006
G1 X135.054 Y110.728 E55.84236
G1 X136.264 Y110.406 E55.884
G1 X137.518 Y110.3 E55.92586
G1 X138.77 Y110.412 E55.96767
G1 X139.979 Y110.74 E56.00933
G1 X141.1 Y111.262 E56.05046
G1 X142.127 Y111.985 E56.09223
G1 X143.013 Y112.87 E56.13389
G1 X143.735 Y113.895 E56.17559
G1 X144.271 Y115.052 E56.218
G1 X144.592 Y116.247 E56.25915
G1 X144.7 Y117.516 E56.30151
G1 X144.592 Y118.753 E56.34281
G1 X144.268 Y119.957 E56.38428
G1 X143.735 Y121.105 E56.42638
G1 X143.012 Y122.132 E56.46815
G1 X142.123 Y123.019 E56.50992
G1 X141.085 Y123.746 E56.55207
G1 X139.962 Y124.267 E56.59324
G1 X138.746 Y124.593 E56.63512
G1 X137.482 Y124.7 E56.67731
G1 X136.249 Y124.592 E56.71848
G1 F2700 E51.71848
G0 F6000 X136.213 Y125.091
G0 X138.792 Y124.828
G0 X140.044 Y124.492
G0 X141.22 Y123.944
G0 X142.283 Y123.2
G0 X143.2 Y122.283
G0 X143.944 Y121.22
G0 X144.492 Y120.044
G0 X144.828 Y118.792
G0 X144.942 Y117.5
G0 X144.828 Y116.208
G0 X144.492 Y114.956
G0 X143.944 Y113.78
G0 X143.342 Y112.92
G0 X141.448 Y110.797
G0 X141.448 Y92.9
G0 X153.024 Y93.1
;TYPE:WALL-INNER
G1 F2700 E56.71848
G1 F1200 X136.718 Y93.101 E57.26082
G1 X81.976 Y93.1 E59.08154
G1 X81.67 Y93.002 E59.09223
G1 X81.481 Y92.803 E59.10136
G1 X81.4 Y92.573 E59.10947
G1 X81.4 Y67.421 E59.94603
G1 X81.538 Y67.115 E59.95719
G1 X81.733 Y66.962 E59.96543
G1 X81.92 Y66.9 E59.97199
G1 X153.08 Y66.9 E62.33878
G1 X153.267 Y66.962 E62.34533
G1 X153.462 Y67.115 E62.35357
G1 X153.6 Y67.421 E62.36474
G1 X153.597 Y92.565 E63.20103
G1 X153.57 Y92.69 E63.20529
G1 X153.451 Y92.897 E63.21323
G1 X153.33 Y93.002 E63.21856
G1 X153.024 Y93.1 E63.22924
G1 F2700 E58.22924
G0 F6000 X82.083 Y93.2
G1 F2700 E63.22924
G0 F6000 X81.89 Y92.668
;TYPE:WALL-OUTER
G1 F1200 X81.802 Y92.535 E63.23455
G1 X81.802 Y67.465 E64.06838
G1 X81.831 Y67.392 E64.07099
G1 X81.968 Y67.302 E64.07644
G1 X153.035 Y67.302 E66.44014
G1 X153.169 Y67.392 E66.44551
G1 X153.198 Y67.465 E66.44812
G1 X153.198 Y92.535 E67.28195
G1 X153.124 Y92.658 E67.28673
G1 X153.018 Y92.7 E67.29052
G1 X136.718 Y92.701 E67.83266
G1 X81.982 Y92.7 E69.65319
G1 X81.89 Y92.668 E69.65643
G1 F2700 E64.65643
G0 F6000 X82.083 Y93.2
G0 X117.358 Y92.9
G0 X117.5 Y141.719
G0 X117.5 Y163.103
;TYPE:WALL-INNER
G1 F2700 E69.65643
G1 F1200 X115.656 Y162.941 E69.71799
G1 X113.87 Y162.462 E69.7795
G1 X112.199 Y161.682 E69.84083
G1 X110.687 Y160.619 E69.9023
G1 X109.379 Y159.312 E69.96381
G1 X108.326 Y157.814 E70.02471
G1 X107.532 Y156.107 E70.08732
G1 X107.062 Y154.351 E70.14778
G1 X106.9 Y152.475 E70.21041
G1 X107.066 Y150.631 E70.27199
G1 X107.537 Y148.873 E70.33253
G1 X108.3 Y147.233 E70.39269
G1 X108.346 Y147.156 E70.39567
G1 X109.367 Y145.704 E70.45471
G1 X110.701 Y144.369 E70.51748
G1 X112.196 Y143.318 E70.57826
G1 X113.867 Y142.541 E70.63955
G1 X115.667 Y142.059 E70.70153
G1 X117.5 Y141.897 E70.76273
G1 X119.333 Y142.059 E70.82394
G1 X121.133 Y142.541 E70.88591
G1 X122.796 Y143.316 E70.94694
G1 X124.325 Y144.39 E71.00908
G1 X125.624 Y145.689 E71.07019
G1 X126.684 Y147.199 E71.13155
G1 X127.454 Y148.853 E71.19223
G1 X127.942 Y150.66 E71.25448
