;FLAVOR:Marlin
;TIME:22668
;Filament used: 15.5066m
;Layer height: 0.2
;MINX:56.5
;MINY:46.5
;MINZ:0.2
;MAXX:178.5
;MAXY:188.5
;MAXZ:25
;Generated with Cura_SteamEngine 5.2.2
M140 S50
M105
M190 S50
M104 S200
M105
M109 S200
M82 ;absolute extrusion mode
; Ender 3 Custom Start G-code
G92 E0 ; Reset Extruder
G28 ; Home all axes
G29 ; Automatic Bed Leveling (BLTouch)
G1 Z2.0 F3000 ; Move Z Axis up little to prevent scratching of Heat Bed
G1 X0.1 Y20 Z0.3 F5000.0 ; Move to start position
G1 X0.1 Y200.0 Z0.3 F1500.0 E15 ; Draw the first line
G1 X0.4 Y200.0 Z0.3 F5000.0 ; Move to side a little
G1 X0.4 Y20 Z0.3 F1500.0 E30 ; Draw the second line
G92 E0 ; Reset Extruder
G1 Z2.0 F3000 ; Move Z Axis up little to prevent scratching of Heat Bed
G1 X5 Y20 Z0.3 F5000.0 ; Move over to prevent blob squish
G92 E0
G92 E0
G1 F2700 E-5
;LAYER_COUNT:125
;LAYER:0
M107
G0 F6000 X59.066 Y50.458 Z0.2
;TYPE:SKIRT
G1 F2700 E0
G1 F1200 X59.698 Y49.764 E0.03122
G1 X60.386 Y49.127 E0.0624
G1 X61.126 Y48.551 E0.09359
G1 X61.912 Y48.039 E0.12479
G1 X62.739 Y47.597 E0.15598
G1 X63.601 Y47.227 E0.18718
G1 X64.491 Y46.931 E0.21838
G1 X65.403 Y46.713 E0.24957
G1 X66.33 Y46.572 E0.28075
G1 X67.201 Y46.513 E0.30979
G1 X67.83 Y46.5 E0.33071
G1 X166.951 Y46.501 E3.62749
G1 X167.649 Y46.511 E3.65071
G1 X168.585 Y46.565 E3.68189
G1 X169.513 Y46.697 E3.71307
G1 X170.427 Y46.909 E3.74428
G1 X171.319 Y47.198 E3.77546
G1 X172.184 Y47.561 E3.80666
G1 X173.014 Y47.997 E3.83785
G1 X173.805 Y48.502 E3.86906
G1 X174.549 Y49.073 E3.90025
G1 X175.242 Y49.705 E3.93145
G1 X175.879 Y50.393 E3.96263
G1 X176.454 Y51.134 E3.99383
G1 X176.965 Y51.92 E4.02501
G1 X177.407 Y52.748 E4.05623
G1 X177.776 Y53.61 E4.08741
G1 X178.071 Y54.5 E4.1186
G1 X178.289 Y55.412 E4.14979
G1 X178.429 Y56.34 E4.181
G1 X178.487 Y57.201 E4.2097
G1 X178.5 Y57.83 E4.23063
G1 X178.499 Y176.9 E8.19091
G1 X178.49 Y177.627 E8.21509
G1 X178.439 Y178.564 E8.24631
G1 X178.307 Y179.492 E8.27748
G1 X178.098 Y180.406 E8.30867
G1 X177.811 Y181.299 E8.33986
G1 X177.449 Y182.165 E8.37108
G1 X177.015 Y182.996 E8.40226
G1 X176.511 Y183.787 E8.43346
G1 X175.942 Y184.532 E8.46464
G1 X175.311 Y185.227 E8.49586
G1 X174.624 Y185.865 E8.52704
G1 X173.885 Y186.442 E8.55823
G1 X173.099 Y186.954 E8.58943
G1 X172.273 Y187.397 E8.6206
G1 X171.411 Y187.769 E8.65183
G1 X170.522 Y188.065 E8.68299
G1 X169.61 Y188.285 E8.71419
G1 X168.683 Y188.426 E8.74538
G1 X167.799 Y188.487 E8.77485
G1 X167.17 Y188.5 E8.79578
G1 X68.065 Y188.499 E12.09202
G1 X67.367 Y188.49 E12.11524
G1 X66.431 Y188.438 E12.14642
G1 X65.502 Y188.306 E12.17763
G1 X64.588 Y188.096 E12.20882
G1 X63.695 Y187.809 E12.24002
G1 X62.83 Y187.446 E12.27122
G1 X61.999 Y187.012 E12.3024
G1 X61.208 Y186.508 E12.3336
G1 X60.463 Y185.938 E12.3648
G1 X59.769 Y185.307 E12.39599
G1 X59.132 Y184.62 E12.42715
G1 X58.555 Y183.88 E12.45836
G1 X58.043 Y183.094 E12.48956
G1 X57.6 Y182.267 E12.52077
G1 X57.229 Y181.406 E12.55195
G1 X56.933 Y180.516 E12.58315
G1 X56.714 Y179.604 E12.61434
G1 X56.573 Y178.677 E12.64553
G1 X56.513 Y177.788 E12.67516
G1 X56.5 Y177.158 E12.69612
G1 X56.501 Y58.025 E16.6585
G1 X56.51 Y57.36 E16.68062
G1 X56.563 Y56.424 E16.7118
G1 X56.695 Y55.495 E16.74301
G1 X56.906 Y54.581 E16.77421
G1 X57.194 Y53.689 E16.80539
G1 X57.557 Y52.824 E16.83659
G1 X57.992 Y51.993 E16.86779
G1 X58.496 Y51.203 E16.89895
G1 X59.066 Y50.458 E16.93015
G0 F6000 X59.461 Y50.611
G1 F1200 X60.089 Y49.939 E16.96074
G1 X60.774 Y49.323 E16.99138
G1 X61.51 Y48.77 E17.022
G1 X62.291 Y48.282 E17.05263
G1 X63.111 Y47.864 E17.08325
G1 X63.965 Y47.519 E17.11388
G1 X64.845 Y47.249 E17.1445
G1 X65.745 Y47.057 E17.1751
G1 X66.659 Y46.943 E17.20574
G1 X67.212 Y46.913 E17.22416
G1 X67.83 Y46.9 E17.24472
G1 X166.945 Y46.901 E20.5413
G1 X167.643 Y46.911 E20.56451
G1 X168.562 Y46.964 E20.59513
G1 X169.473 Y47.097 E20.62575
G1 X170.369 Y47.308 E20.65637
G1 X171.243 Y47.596 E20.68698
G1 X172.09 Y47.959 E20.71763
G1 X172.901 Y48.394 E20.74823
G1 X173.671 Y48.898 E20.77884
G1 X174.395 Y49.467 E20.80947
G1 X175.067 Y50.097 E20.84011
G1 X175.682 Y50.782 E20.87073
G1 X176.235 Y51.518 E20.90134
G1 X176.722 Y52.299 E20.93196
G1 X177.139 Y53.12 E20.96258
G1 X177.484 Y53.974 E20.99322
G1 X177.753 Y54.854 E21.02382
G1 X177.945 Y55.755 E21.05446
G1 X178.058 Y56.668 E21.08506
G1 X178.087 Y57.212 E21.10318
G1 X178.1 Y57.83 E21.12374
G1 X178.099 Y176.895 E25.08386
G1 X178.09 Y177.622 E25.10804
G1 X178.039 Y178.541 E25.13865
G1 X177.908 Y179.453 E25.1693
G1 X177.698 Y180.349 E25.19991
G1 X177.412 Y181.224 E25.23053
G1 X177.051 Y182.071 E25.26115
G1 X176.617 Y182.883 E25.29177
G1 X176.115 Y183.655 E25.3224
G1 X175.547 Y184.38 E25.35303
G1 X174.919 Y185.053 E25.38365
G1 X174.235 Y185.669 E25.41426
G1 X173.5 Y186.223 E25.44488
G1 X172.72 Y186.712 E25.4755
G1 X171.9 Y187.131 E25.50612
G1 X171.047 Y187.477 E25.53674
G1 X170.167 Y187.748 E25.56737
G1 X169.267 Y187.941 E25.59798
G1 X168.353 Y188.056 E25.62862
G1 X167.788 Y188.087 E25.64744
G1 X167.17 Y188.1 E25.668
G1 X68.07 Y188.099 E28.96408
G1 X67.372 Y188.09 E28.9873
G1 X66.453 Y188.038 E29.01791
G1 X65.542 Y187.907 E29.04852
G1 X64.646 Y187.697 E29.07913
G1 X63.771 Y187.41 E29.10976
G1 X62.924 Y187.048 E29.1404
G1 X62.112 Y186.614 E29.17102
G1 X61.341 Y186.112 E29.20162
G1 X60.616 Y185.544 E29.23225
G1 X59.943 Y184.915 E29.26289
G1 X59.328 Y184.231 E29.29348
G1 X58.774 Y183.496 E29.3241
G1 X58.286 Y182.715 E29.35473
G1 X57.867 Y181.895 E29.38535
G1 X57.521 Y181.042 E29.41597
G1 X57.251 Y180.162 E29.44659
G1 X57.058 Y179.261 E29.47723
G1 X56.944 Y178.348 E29.50783
G1 X56.913 Y177.777 E29.52685
G1 X56.9 Y177.158 E29.54745
G1 X56.901 Y58.031 E33.50963
G1 X56.91 Y57.366 E33.53175
G1 X56.962 Y56.446 E33.5624
G1 X57.094 Y55.535 E33.59301
G1 X57.305 Y54.639 E33.62363
G1 X57.592 Y53.764 E33.65426
G1 X57.955 Y52.918 E33.68488
G1 X58.389 Y52.106 E33.7155
G1 X58.892 Y51.335 E33.74612
G1 X59.461 Y50.611 E33.77674
G0 F6000 X59.855 Y50.767
G1 F1200 X60.481 Y50.117 E33.80676
G1 X61.162 Y49.524 E33.83679
G1 X61.894 Y48.994 E33.86685
G1 X62.669 Y48.531 E33.89688
G1 X63.482 Y48.138 E33.92691
G1 X64.327 Y47.818 E33.95696
G1 X65.196 Y47.575 E33.98697
G1 X66.084 Y47.409 E34.01702
G1 X67.223 Y47.313 E34.05504
G1 X67.83 Y47.3 E34.07523
G1 X166.939 Y47.301 E37.37161
G1 X167.637 Y47.311 E37.39483
G1 X168.539 Y47.364 E37.42488
G1 X169.432 Y47.496 E37.45491
G1 X170.31 Y47.707 E37.48494
G1 X171.166 Y47.995 E37.51498
G1 X171.993 Y48.357 E37.545
G1 X172.785 Y48.792 E37.57506
G1 X173.536 Y49.294 E37.6051
G1 X174.239 Y49.861 E37.63514
G1 X174.889 Y50.488 E37.66518
G1 X175.481 Y51.17 E37.69522
G1 X176.011 Y51.901 E37.72525
G1 X176.473 Y52.677 E37.75529
G1 X176.866 Y53.49 E37.78532
G1 X177.184 Y54.335 E37.81535
G1 X177.427 Y55.205 E37.84539
G1 X177.592 Y56.093 E37.87543
G1 X177.687 Y57.223 E37.91315
G1 X177.7 Y57.83 E37.93334
G1 X177.699 Y176.89 E41.8933
G1 X177.69 Y177.617 E41.91748
G1 X177.639 Y178.519 E41.94753
G1 X177.508 Y179.413 E41.97758
G1 X177.299 Y180.291 E42.0076
G1 X177.013 Y181.148 E42.03765
G1 X176.652 Y181.976 E42.06769
G1 X176.22 Y182.768 E42.09769
G1 X175.719 Y183.52 E42.12775
G1 X175.153 Y184.224 E42.15779
G1 X174.528 Y184.875 E42.18781
G1 X173.847 Y185.469 E42.21786
G1 X173.116 Y186 E42.24792
G1 X172.342 Y186.464 E42.27793
G1 X171.529 Y186.858 E42.30798
G1 X170.685 Y187.178 E42.338
G1 X169.815 Y187.423 E42.36806
G1 X168.928 Y187.589 E42.39808
G1 X167.777 Y187.687 E42.4365
G1 X167.17 Y187.7 E42.45669
G1 X68.075 Y187.699 E45.7526
G1 X67.377 Y187.69 E45.77582
G1 X66.476 Y187.639 E45.80584
G1 X65.582 Y187.507 E45.83589
G1 X64.704 Y187.298 E45.86591
G1 X63.847 Y187.011 E45.89597
G1 X63.02 Y186.65 E45.92598
G1 X62.227 Y186.217 E45.95604
G1 X61.476 Y185.716 E45.98606
G1 X60.772 Y185.15 E46.01611
G1 X60.121 Y184.524 E46.04614
G1 X59.528 Y183.843 E46.07618
G1 X58.998 Y183.112 E46.10621
G1 X58.534 Y182.337 E46.13625
G1 X58.14 Y181.524 E46.1663
G1 X57.82 Y180.68 E46.19632
G1 X57.576 Y179.81 E46.22638
G1 X57.41 Y178.922 E46.25642
G1 X57.313 Y177.767 E46.29497
G1 X57.3 Y177.158 E46.31523
G1 X57.301 Y58.036 E50.27725
G1 X57.31 Y57.371 E50.29937
G1 X57.362 Y56.469 E50.32942
G1 X57.494 Y55.576 E50.35944
G1 X57.704 Y54.698 E50.38947
G1 X57.991 Y53.841 E50.41953
G1 X58.353 Y53.014 E50.44955
G1 X58.786 Y52.222 E50.47958
G1 X59.288 Y51.471 E50.50962
G1 X59.855 Y50.767 E50.53969
G1 F2700 E45.53969
;MESH:StudentBuddy FinalDesign 01 BackHalf.STL
G0 F6000 X66.835 Y57.92
G0 X68.1 Y176.9
;TYPE:WALL-INNER
G1 F2700 E50.53969
G1 F1200 X166.9 Y176.9 E53.82579
G1 X166.9 Y107.5 E56.13404
G1 X166.9 Y58.1 E57.77709
G1 X68.1 Y58.1 E61.06319
G1 X68.1 Y176.9 E65.0145
G0 F6000 X67.7 Y177.3
;TYPE:WALL-OUTER
G1 F1200 X167.3 Y177.3 E68.32721
G1 X167.3 Y107.5 E70.64876
G1 X167.3 Y57.7 E72.30512
G1 X67.7 Y57.7 E75.61783
G1 X67.7 Y177.3 E79.59574
G0 F6000 X67.97 Y177.03
G0 X68.2 Y176.54
G0 X68.46 Y176.54
;TYPE:SKIN
G1 F1200 X166.54 Y176.54 E82.85789
G1 X166.54 Y107.5 E85.15417
G1 X166.54 Y58.46 E86.78525
G1 X68.46 Y58.46 E90.0474
G1 X68.46 Y176.54 E93.97476
G0 F6000 X68.859 Y176.339
G1 F1200 X68.659 Y176.139 E93.98417
G0 F6000 X68.659 Y175.573
G1 F1200 X69.425 Y176.339 E94.0202
G0 F6000 X69.99 Y176.339
G1 F1200 X68.659 Y175.008 E94.0828
G0 F6000 X68.659 Y174.442
G1 F1200 X70.556 Y176.339 E94.17203
G0 F6000 X71.122 Y176.339
G1 F1200 X68.659 Y173.876 E94.28789
G0 F6000 X68.659 Y173.311
G1 F1200 X71.687 Y176.339 E94.43031
G0 F6000 X72.253 Y176.339
G1 F1200 X68.659 Y172.745 E94.59936
G0 F6000 X68.659 Y172.179
G1 F1200 X72.819 Y176.339 E94.79504
G0 F6000 X73.384 Y176.339
G1 F1200 X68.659 Y171.614 E95.01729
G0 F6000 X68.659 Y171.048
G1 F1200 X73.95 Y176.339 E95.26616
G0 F6000 X74.516 Y176.339
G1 F1200 X68.659 Y170.482 E95.54166
G0 F6000 X68.659 Y169.917
G1 F1200 X75.082 Y176.339 E95.84375
G0 F6000 X75.647 Y176.339
G1 F1200 X68.659 Y169.351 E96.17244
G0 F6000 X68.659 Y168.785
G1 F1200 X76.213 Y176.339 E96.52776
G0 F6000 X76.779 Y176.339
G1 F1200 X68.659 Y168.219 E96.9097
G0 F6000 X68.659 Y167.654
G1 F1200 X77.344 Y176.339 E97.31822
G0 F6000 X77.91 Y176.339
G1 F1200 X68.659 Y167.088 E97.75336
G0 F6000 X68.659 Y166.522
G1 F1200 X78.476 Y176.339 E98.21512
G0 F6000 X79.041 Y176.339
G1 F1200 X68.659 Y165.957 E98.70345
G0 F6000 X68.659 Y165.391
G1 F1200 X79.607 Y176.339 E99.21841
G0 F6000 X80.173 Y176.339
G1 F1200 X68.659 Y164.825 E99.76
G0 F6000 X68.659 Y164.26
G1 F1200 X80.738 Y176.339 E100.32816
G0 F6000 X81.304 Y176.339
G1 F1200 X68.659 Y163.694 E100.92294
G0 F6000 X68.659 Y163.128
G1 F1200 X81.87 Y176.339 E101.54434
G0 F6000 X82.435 Y176.339
G1 F1200 X68.659 Y162.563 E102.19232
G0 F6000 X68.659 Y161.997
G1 F1200 X83.001 Y176.339 E102.86693
G0 F6000 X83.567 Y176.339
G1 F1200 X68.659 Y161.431 E103.56816
G0 F6000 X68.659 Y160.866
G1 F1200 X84.132 Y176.339 E104.29596
G0 F6000 X84.698 Y176.339
G1 F1200 X68.659 Y160.3 E105.05038
G0 F6000 X68.659 Y159.734
G1 F1200 X85.264 Y176.339 E105.83143
G0 F6000 X85.83 Y176.339
G1 F1200 X68.659 Y159.169 E106.63908
G0 F6000 X68.659 Y158.603
G1 F1200 X86.395 Y176.339 E107.47333
G0 F6000 X86.961 Y176.339
G1 F1200 X68.659 Y158.037 E108.3342
G0 F6000 X68.659 Y157.471
G1 F1200 X87.527 Y176.339 E109.22169
G0 F6000 X88.092 Y176.339
G1 F1200 X68.659 Y156.906 E110.13576
G0 F6000 X68.659 Y156.34
G1 F1200 X88.658 Y176.339 E111.07645
G0 F6000 X89.224 Y176.339
G1 F1200 X68.659 Y155.774 E112.04376
G0 F6000 X68.659 Y155.209
G1 F1200 X89.789 Y176.339 E113.03765
G0 F6000 X90.355 Y176.339
G1 F1200 X68.659 Y154.643 E114.05817
G0 F6000 X68.659 Y154.077
G1 F1200 X90.921 Y176.339 E115.1053
G0 F6000 X91.486 Y176.339
G1 F1200 X68.659 Y153.512 E116.17902
G0 F6000 X68.659 Y152.946
G1 F1200 X92.052 Y176.339 E117.27935
G0 F6000 X92.618 Y176.339
G1 F1200 X68.659 Y152.38 E118.40631
G0 F6000 X68.659 Y151.815
G1 F1200 X93.183 Y176.339 E119.55984
G0 F6000 X93.749 Y176.339
G1 F1200 X68.659 Y151.249 E120.74
G0 F6000 X68.659 Y150.683
G1 F1200 X94.315 Y176.339 E121.94678
G0 F6000 X94.881 Y176.339
G1 F1200 X68.659 Y150.118 E123.18016
G0 F6000 X68.659 Y149.552
G1 F1200 X95.446 Y176.339 E124.44014
G0 F6000 X96.012 Y176.339
G1 F1200 X68.659 Y148.986 E125.72674
G0 F6000 X68.659 Y148.421
G1 F1200 X96.578 Y176.339 E127.03994
G0 F6000 X97.143 Y176.339
G1 F1200 X68.659 Y147.855 E128.37974
G0 F6000 X68.659 Y147.289
G1 F1200 X97.709 Y176.339 E129.74616
G0 F6000 X98.275 Y176.339
G1 F1200 X68.659 Y146.723 E131.13921
G0 F6000 X68.659 Y146.158
G1 F1200 X98.84 Y176.339 E132.55883
G0 F6000 X99.406 Y176.339
G1 F1200 X68.659 Y145.592 E134.00507
G0 F6000 X68.659 Y145.026
G1 F1200 X99.972 Y176.339 E135.47794
G0 F6000 X100.537 Y176.339
G1 F1200 X68.659 Y144.461 E136.97738
G0 F6000 X68.659 Y143.895
G1 F1200 X101.103 Y176.339 E138.50345
G0 F6000 X101.669 Y176.339
G1 F1200 X68.659 Y143.329 E140.05614
G0 F6000 X68.659 Y142.764
G1 F1200 X102.234 Y176.339 E141.6354
G0 F6000 X102.8 Y176.339
G1 F1200 X68.659 Y142.198 E143.24129
G0 F6000 X68.659 Y141.632
G1 F1200 X103.366 Y176.339 E144.8738
G0 F6000 X103.931 Y176.339
G1 F1200 X68.659 Y141.067 E146.53289
G0 F6000 X68.659 Y140.501
G1 F1200 X104.497 Y176.339 E148.2186
G0 F6000 X105.063 Y176.339
G1 F1200 X68.659 Y139.935 E149.93093
G0 F6000 X68.659 Y139.37
G1 F1200 X105.629 Y176.339 E151.66986
G0 F6000 X106.194 Y176.339
G1 F1200 X68.659 Y138.804 E153.4354
G0 F6000 X68.659 Y138.238
G1 F1200 X106.76 Y176.339 E155.22755
G0 F6000 X107.326 Y176.339
G1 F1200 X68.659 Y137.672 E157.04633
G0 F6000 X68.659 Y137.107
G1 F1200 X107.891 Y176.339 E158.89168
G0 F6000 X108.457 Y176.339
G1 F1200 X68.659 Y136.541 E160.76366
G0 F6000 X68.659 Y135.975
G1 F1200 X109.023 Y176.339 E162.66225
G0 F6000 X109.588 Y176.339
G1 F1200 X68.659 Y135.41 E164.58743
G0 F6000 X68.659 Y134.844
G1 F1200 X110.154 Y176.339 E166.53923
G0 F6000 X110.72 Y176.339
G1 F1200 X68.659 Y134.278 E168.51765
G0 F6000 X68.659 Y133.713
G1 F1200 X111.285 Y176.339 E170.52264
G0 F6000 X111.851 Y176.339
G1 F1200 X68.659 Y133.147 E172.55426
G0 F6000 X68.659 Y132.581
G1 F1200 X112.417 Y176.339 E174.61251
G0 F6000 X112.982 Y176.339
G1 F1200 X68.659 Y132.016 E176.69732
G0 F6000 X68.659 Y131.45
G1 F1200 X113.548 Y176.339 E178.80876
G0 F6000 X114.114 Y176.339
G1 F1200 X68.659 Y130.884 E180.94683
G0 F6000 X68.659 Y130.319
G1 F1200 X114.679 Y176.339 E183.11147
G0 F6000 X115.245 Y176.339
G1 F1200 X68.659 Y129.753 E185.30273
G0 F6000 X68.659 Y129.187
G1 F1200 X115.811 Y176.339 E187.52062
G0 F6000 X116.377 Y176.339
G1 F1200 X68.659 Y128.622 E189.7651
G0 F6000 X68.659 Y128.056
G1 F1200 X116.942 Y176.339 E192.03618
G0 F6000 X117.508 Y176.339
G1 F1200 X68.659 Y127.49 E194.33389
G0 F6000 X68.659 Y126.924
G1 F1200 X118.074 Y176.339 E196.65822
G0 F6000 X118.639 Y176.339
G1 F1200 X68.659 Y126.359 E199.00913
G0 F6000 X68.659 Y125.793
G1 F1200 X119.205 Y176.339 E201.38666
G0 F6000 X119.771 Y176.339
G1 F1200 X68.659 Y125.227 E203.79081
G0 F6000 X68.659 Y124.662
G1 F1200 X120.336 Y176.339 E206.22154
G0 F6000 X120.902 Y176.339
G1 F1200 X68.659 Y124.096 E208.67889
G0 F6000 X68.659 Y123.53
G1 F1200 X121.468 Y176.339 E211.16286
G0 F6000 X122.033 Y176.339
G1 F1200 X68.659 Y122.965 E213.67341
G0 F6000 X68.659 Y122.399
G1 F1200 X122.599 Y176.339 E216.21058
G0 F6000 X123.165 Y176.339
G1 F1200 X68.659 Y121.833 E218.77438
G0 F6000 X68.659 Y121.268
G1 F1200 X123.73 Y176.339 E221.36475
G0 F6000 X124.296 Y176.339
G1 F1200 X68.659 Y120.702 E223.98174
G0 F6000 X68.659 Y120.136
G1 F1200 X124.862 Y176.339 E226.62536
G0 F6000 X125.428 Y176.339
G1 F1200 X68.659 Y119.571 E229.29558
G0 F6000 X68.659 Y119.005
G1 F1200 X125.993 Y176.339 E231.99239
G0 F6000 X126.559 Y176.339
G1 F1200 X68.659 Y118.439 E234.71583
G0 F6000 X68.659 Y117.873
G1 F1200 X127.125 Y176.339 E237.46589
